build/redact/BorderInnerOutline.svg

<svg xmlns="http://www.w3.org/2000/svg" fill="none" viewBox="0 0 24 24" focusable="false"><path d="M0 0H24V24H0z" transform="matrix(1 0 0 -1 0 24)"/><path fill="#74767B" fill-rule="evenodd" d="M7.6516 5.3C7.46008 5.3 7.27474 5.32276 7.0978 5.36541C6.74867 5.44959 6.39738 5.23492 6.31317 4.88594C6.30081 4.83473 6.2949 4.78346 6.2949 4.733C6.2949 4.43965 6.49496 4.17347 6.79286 4.10166C7.0689 4.0351 7.35658 4 7.6516 4L8.30892 4C8.66806 4 8.9592 4.29101 8.9592 4.65C8.9592 5.00898 8.66806 5.3 8.30892 5.3L7.6516 5.3ZM15.0408 4.65C15.0408 4.29101 15.3319 4 15.6911 4L16.3484 4C16.6434 4 16.9311 4.0351 17.2071 4.10166C17.505 4.17347 17.7051 4.43965 17.7051 4.733C17.7051 4.78346 17.6992 4.83473 17.6868 4.88594C17.6026 5.23492 17.2513 5.44959 16.9022 5.36541C16.7253 5.32276 16.5399 5.3 16.3484 5.3L15.6911 5.3C15.3319 5.3 15.0408 5.00898 15.0408 4.65ZM12.6625 19.3398C12.6625 19.6988 12.3713 19.9898 12.0122 19.9898C11.6531 19.9898 11.3619 19.6988 11.3619 19.3398L11.3619 12.6437L4.65322 12.6437C4.29407 12.6437 4.00293 12.3526 4.00293 11.9937C4.00293 11.6347 4.29407 11.3437 4.65322 11.3437L11.3619 11.3437L11.3619 4.65156C11.3619 4.29258 11.6531 4.00156 12.0122 4.00156C12.3713 4.00156 12.6625 4.29258 12.6625 4.65156L12.6625 11.3437L19.346 11.3437C19.7052 11.3437 19.9963 11.6347 19.9963 11.9937C19.9963 12.3526 19.7052 12.6437 19.346 12.6437L12.6625 12.6437L12.6625 19.3398ZM4.88633 6.31216C5.18422 6.38398 5.38429 6.65015 5.38429 6.94351C5.38429 6.99397 5.37837 7.04523 5.36601 7.09645C5.32334 7.27331 5.30057 7.45856 5.30057 7.65L5.30057 8.3072C5.30057 8.66619 5.00943 8.9572 4.65028 8.9572C4.29114 8.9572 4 8.66619 4 8.3072L4 7.65C4 7.35511 4.03512 7.06756 4.1017 6.79163C4.18591 6.44265 4.5372 6.22799 4.88633 6.31216ZM19.1137 6.31216C19.4628 6.22799 19.8141 6.44265 19.8983 6.79163C19.9649 7.06755 20 7.3551 20 7.65L20 8.3072C20 8.66619 19.7089 8.9572 19.3497 8.9572C18.9906 8.9572 18.6994 8.66619 18.6994 8.3072L18.6994 7.65C18.6994 7.45856 18.6767 7.27331 18.634 7.09645C18.6216 7.04523 18.6157 6.99397 18.6157 6.94351C18.6157 6.65015 18.8158 6.38398 19.1137 6.31216ZM19.3497 15.0381C19.7089 15.0381 20 15.3291 20 15.6881L20 16.3453C20 16.6402 19.9649 16.9278 19.8983 17.2037C19.8141 17.5527 19.4628 17.7673 19.1137 17.6832C18.8158 17.6113 18.6157 17.3452 18.6157 17.0518C18.6157 17.0013 18.6216 16.9501 18.634 16.8989C18.6767 16.722 18.6994 16.5367 18.6994 16.3453L18.6994 15.6881C18.6994 15.3291 18.9906 15.0381 19.3497 15.0381ZM4.65028 15.0381C5.00943 15.0381 5.30057 15.3291 5.30057 15.6881L5.30057 16.3453C5.30057 16.5367 5.32334 16.722 5.36601 16.8989C5.37837 16.9501 5.38429 17.0013 5.38429 17.0518C5.38429 17.3452 5.18422 17.6113 4.88633 17.6832C4.5372 17.7673 4.18591 17.5527 4.1017 17.2037C4.03512 16.9278 4 16.6402 4 16.3453L4 15.6881C4 15.3291 4.29114 15.0381 4.65028 15.0381ZM6.31317 19.1094C6.39738 18.7604 6.74867 18.5457 7.0978 18.6299C7.27474 18.6726 7.46008 18.6953 7.6516 18.6953L8.30892 18.6953C8.66806 18.6953 8.9592 18.9863 8.9592 19.3453C8.9592 19.7043 8.66806 19.9953 8.30892 19.9953L7.6516 19.9953C7.35658 19.9953 7.0689 19.9602 6.79285 19.8937C6.49496 19.8218 6.29489 19.5557 6.29489 19.2623C6.29489 19.2118 6.30081 19.1606 6.31317 19.1094ZM17.6868 19.1094C17.6992 19.1606 17.7051 19.2118 17.7051 19.2623C17.7051 19.5557 17.505 19.8218 17.2071 19.8937C16.9311 19.9602 16.6434 19.9953 16.3484 19.9953L15.6911 19.9953C15.3319 19.9953 15.0408 19.7043 15.0408 19.3453C15.0408 18.9863 15.3319 18.6953 15.6911 18.6953L16.3484 18.6953C16.5399 18.6953 16.7253 18.6726 16.9022 18.6299C17.2513 18.5457 17.6026 18.7604 17.6868 19.1094Z"/></svg>

<svg xmlns="http://www.w3.org/2000/svg" fill="none" viewBox="0 0 24 24" focusable="false"><path fill="#74767B" fill-rule="evenodd" d="M7.65 5.29c-.2 0-.38.03-.56.07-.35.08-.7-.13-.78-.48a.641.641 0 0 1 .48-.78c.27-.07.56-.1.86-.1h.65c.36 0 .65.29.65.64 0 .36-.29.65-.65.65zm7.39-.65c0-.35.29-.64.65-.64h.65c.3 0 .59.03.86.1a.64.64 0 0 1 .48.78c-.08.35-.43.56-.78.48-.18-.04-.36-.07-.56-.07h-.65c-.36 0-.65-.29-.65-.65m-2.38 14.69c0 .36-.29.65-.65.65s-.65-.29-.65-.65v-6.69H4.65c-.36 0-.65-.29-.65-.65s.29-.65.65-.65h6.71V4.65c0-.36.29-.65.65-.65s.65.29.65.65v6.69h6.68c.36 0 .65.29.65.65s-.29.65-.65.65h-6.68zM4.88 6.31c.3.07.5.34.5.63 0 .05-.01.1-.02.15-.04.18-.06.36-.06.55v.66c0 .36-.3.65-.65.65-.36 0-.65-.29-.65-.65v-.66c0-.29.03-.58.1-.85.08-.35.43-.57.78-.48m14.23 0c.35-.09.7.13.78.48.07.27.11.56.11.85v.66a.655.655 0 0 1-1.31 0v-.66c0-.19-.02-.37-.06-.55-.01-.05-.02-.1-.02-.15 0-.29.2-.56.5-.63m.23 8.72c.36 0 .66.29.66.65v.66c0 .3-.04.58-.11.86a.65.65 0 0 1-1.28-.15c0-.05.01-.1.02-.16.04-.17.06-.36.06-.55v-.66c0-.36.3-.65.65-.65m-14.69 0c.35 0 .65.29.65.65v.66c0 .19.02.38.06.55.01.06.02.11.02.16a.65.65 0 0 1-1.28.15c-.07-.28-.1-.56-.1-.86v-.66c0-.36.29-.65.65-.65m1.66 4.07c.08-.34.43-.56.78-.48.18.05.36.07.56.07h.65c.36 0 .65.29.65.65s-.29.65-.65.65h-.65c-.3 0-.59-.03-.86-.1a.65.65 0 0 1-.5-.63c0-.05.01-.1.02-.16m11.37 0c.01.06.02.11.02.16 0 .29-.2.56-.5.63-.27.07-.56.1-.86.1h-.65c-.36 0-.65-.29-.65-.65s.29-.65.65-.65h.65c.2 0 .38-.02.56-.07.35-.08.7.14.78.48"/></svg>
